images/icon/security-file-fill.svg

<svg width="32" height="32" viewBox="0 0 32 32" fill="none" xmlns="http://www.w3.org/2000/svg">
<path d="M15 15H17.5V21H15V15Z" fill="#FF7E75"/>
<path d="M15 22H17.5V24.5H15V22Z" fill="#FF7E75"/>
<path fill-rule="evenodd" clip-rule="evenodd" d="M18.3705 2C18.8567 2.0001 19.3229 2.18454 19.6667 2.51275L26.4628 9C26.8067 9.32811 26.9999 9.77316 27 10.2372V28C27 29.1046 26.1046 30 25 30H7C5.89543 30 5 29.1046 5 28V4C5 2.89543 5.89543 2 7 2H18.3705ZM18.75 8.125V4.625L24.25 9.875H20.5833C20.0971 9.875 19.6308 9.69063 19.287 9.36244C18.9432 9.03425 18.75 8.58913 18.75 8.125ZM16.5452 12.0592C17.1884 12.3797 23.5001 16 23.5001 16L23.077 19.7071C23.077 19.99 21.554 25.6989 16.4404 26.9813C16.3967 26.9931 16.351 26.9996 16.3044 27C16.2576 27.0005 16.2117 26.9948 16.1675 26.9838C10.6666 25.7107 9.0001 20 9.00059 19.7293L8.5001 16C8.5001 16 15.3683 12.3738 16.0681 12.0519C16.0779 12.0472 16.088 12.0429 16.0981 12.0388C16.1663 12.0114 16.2375 11.9989 16.3076 12.0001C16.3776 12.0011 16.4483 12.0157 16.5156 12.0452C16.5256 12.0496 16.5355 12.0542 16.5452 12.0592Z" fill="#FF7E75"/>
</svg>

<svg xmlns="http://www.w3.org/2000/svg" width="32" height="32" viewBox="0 0 32 32">
  <path d="M15 15h2.5v6H15v-6Zm0 7h2.5v2.5H15V22Z"/>
  <path fill-rule="evenodd" d="M18.37 2c.487 0 .953.185 1.297.513L26.463 9c.344.328.537.773.537 1.237V28a2 2 0 0 1-2 2H7a2 2 0 0 1-2-2V4a2 2 0 0 1 2-2h11.37Zm.38 6.125v-3.5l5.5 5.25h-3.667c-.486 0-.952-.184-1.296-.513a1.71 1.71 0 0 1-.537-1.237Zm-2.205 3.934C17.188 12.38 23.5 16 23.5 16l-.423 3.707c0 .283-1.523 5.992-6.637 7.274a.54.54 0 0 1-.273.003C10.668 25.71 9 20 9.002 19.729L8.5 16s6.867-3.626 7.567-3.948a.533.533 0 0 1 .448-.007l.03.014Z" clip-rule="evenodd"/>
</svg>
